; generated by PrusaSlicer 2.5.2+win64 on 2023-06-12 at 21:26:29 UTC


;
;
; 

; external perimeters extrusion width = 0.45mm
; perimeters extrusion width = 0.45mm
; infill extrusion width = 0.45mm
; solid infill extrusion width = 0.45mm
; top infill extrusion width = 0.40mm
; support material extrusion width = 0.35mm
; first layer extrusion width = 0.42mm

M73 P0 R62
M73 Q0 S62
M201 X1000 Y1000 Z200 E5000 ; sets maximum accelerations, mm/sec^2
M203 X200 Y200 Z12 E120 ; sets maximum feedrates, mm / sec
M204 P1250 R1250 T1250 ; sets acceleration (P, T) and retract acceleration (R), mm/sec^2
M205 X8.00 Y8.00 Z0.40 E4.50 ; sets the jerk limits, mm/sec
M205 S0 T0 ; sets the minimum extruding and travel feed rate, mm/sec
M107
;TYPE:Custom
M862.3 P "MK3" ; printer model check
M862.1 P0.4 ; nozzle diameter check
M115 U3.12.2 ; tell printer latest fw version
G90 ; use absolute coordinates
M83 ; extruder relative mode
M104 S215 ; set extruder temp
M140 S60 ; set bed temp
M190 S60 ; wait for bed temp
M109 S215 ; wait for extruder temp
G28 W ; home all without mesh bed level
G80 ; mesh bed leveling

G1 Z0.2 F720
G1 Y-3 F1000 ; go outside print area
G92 E0
G1 X60 E9 F1000 ; intro line
G1 X100 E12.5 F1000 ; intro line

G92 E0
M221 S95

; Don't change E values below. Excessive value can damage the printer.

M907 E538 ; set extruder motor current
G21 ; set units to millimeters
G90 ; use absolute coordinates
M83 ; use relative distances for extrusion
M900 K0.05 ; Filament gcode LA 1.5
M900 K30 ; Filament gcode LA 1.0
M107
;LAYER_CHANGE
;Z:0.2
;HEIGHT:0.2
;BEFORE_LAYER_CHANGE
G92 E0.0
;0.2


G1 E-.8 F2100
G1 Z.4 F720
;AFTER_LAYER_CHANGE
;0.2
G1 X113.001 Y65.83 F10800
G1 Z.2 F720
G1 E.8 F2100
M204 S800
;TYPE:Skirt/Brim
;WIDTH:0.42
G1 F1200
G1 X114.047 Y64.954 E.04278
G1 X114.987 Y64.76 E.03008
G1 X129.987 Y64.76 E.47031
G1 X131.294 Y65.152 E.04278
G1 X132.17 Y66.198 E.04278
G1 X132.364 Y67.137 E.03008
G1 X132.364 Y149.137 E2.57105
G1 X131.972 Y150.444 E.04278
G1 X130.927 Y151.321 E.04278
G1 X129.987 Y151.515 E.03008
G1 X114.987 Y151.515 E.47031
G1 X113.68 Y151.123 E.04278
G1 X112.803 Y150.077 E.04278
G1 X112.61 Y149.137 E.03008
G1 X112.61 Y67.137 E2.57105
G1 X112.984 Y65.888 E.0409
M204 S1000
; printing object Front Panel Holders v2 id:0 copy 0
;WIPE_START
M73 P0 R61
G1 F8640
G1 X114.047 Y64.954 E-.32671
G1 X114.987 Y64.76 E-.22155
G1 X115.904 Y64.76 E-.21174
;WIPE_END
G1 E-.04 F2100
G1 Z.6 F720
G1 X129.2 Y148.35 F10800
G1 Z.2 F720
G1 E.8 F2100
M204 S800
;TYPE:Perimeter
;WIDTH:0.419999
G1 F1200
G1 X115.774 Y148.35 E.42096
G1 X115.774 Y67.925 E2.52169
M73 Q0 S61
G1 X129.2 Y67.925 E.42096
G1 X129.2 Y148.29 E2.51981
M204 S1000
G1 X129.577 Y148.727 F10800
M204 S800
;TYPE:External perimeter
G1 F1200
G1 X115.397 Y148.727 E.4446
G1 X115.397 Y67.547 E2.54534
G1 X129.577 Y67.547 E.4446
G1 X129.577 Y148.667 E2.54346
M204 S1000
G1 X129.22 Y148.548 F10800
;WIPE_START
M73 P1 R61
M73 Q1 S61
G1 F8640
G1 X126.286 Y148.681 E-.76
;WIPE_END
G1 E-.04 F2100
G1 Z.6 F720
G1 X128.264 Y68.094 F10800
G1 Z.2 F720
G1 E.8 F2100
M204 S800
;TYPE:Solid infill
;WIDTH:0.421865
G1 F1200
G1 X128.86 Y68.691 E.02658
G1 X128.86 Y69.227 E.01689
G1 X127.898 Y68.264 E.0429
G1 X127.362 Y68.264 E.01689
G1 X128.86 Y69.763 E.06678
G1 X128.86 Y70.298 E.01689
G1 X126.826 Y68.264 E.09066
G1 X126.29 Y68.264 E.01689
G1 X128.86 Y70.834 E.11454
G1 X128.86 Y71.37 E.01689
G1 X125.754 Y68.264 E.13842
G1 X125.218 Y68.264 E.01689
G1 X128.86 Y71.906 E.16231
G1 X128.86 Y72.442 E.01689
G1 X124.682 Y68.264 E.18619
G1 X124.146 Y68.264 E.01689
G1 X128.86 Y72.978 E.21007
G1 X128.86 Y73.514 E.01689
G1 X123.61 Y68.264 E.23395
G1 X123.075 Y68.264 E.01689
G1 X128.86 Y74.05 E.25783
G1 X128.86 Y74.586 E.01689
G1 X122.539 Y68.264 E.28171
G1 X122.003 Y68.264 E.01689
G1 X128.86 Y75.122 E.30559
G1 X128.86 Y75.658 E.01689
G1 X121.467 Y68.264 E.32947
G1 X120.931 Y68.264 E.01689
G1 X128.86 Y76.193 E.35335
G1 X128.86 Y76.729 E.01689
G1 X120.395 Y68.264 E.37723
G1 X119.859 Y68.264 E.01689
G1 X128.86 Y77.265 E.40111
G1 X128.86 Y77.801 E.01689
G1 X119.323 Y68.264 E.42499
G1 X118.787 Y68.264 E.01689
G1 X128.86 Y78.337 E.44887
G1 X128.86 Y78.873 E.01689
G1 X118.251 Y68.264 E.47275
G1 X117.715 Y68.264 E.01689
G1 X128.86 Y79.409 E.49663
G1 X128.86 Y79.945 E.01689
G1 X117.18 Y68.264 E.52052
G1 X116.644 Y68.264 E.01689
G1 X128.86 Y80.481 E.5444
G1 X128.86 Y81.017 E.01689
G1 X116.113 Y68.27 E.56803
G1 X116.113 Y68.805 E.01689
G1 X128.86 Y81.553 E.56803
G1 X128.86 Y82.088 E.01689
G1 X116.113 Y69.341 E.56803
G1 X116.113 Y69.877 E.01689
G1 X128.86 Y82.624 E.56803
G1 X128.86 Y83.16 E.01689
G1 X116.113 Y70.413 E.56803
G1 X116.113 Y70.949 E.01689
G1 X128.86 Y83.696 E.56803
G1 X128.86 Y84.232 E.01689
G1 X116.113 Y71.485 E.56803
G1 X116.113 Y72.021 E.01689
G1 X128.86 Y84.768 E.56803
G1 X128.86 Y85.304 E.01689
G1 X116.113 Y72.557 E.56803
G1 X116.113 Y73.093 E.01689
G1 X128.86 Y85.84 E.56803
G1 X128.86 Y86.376 E.01689
G1 X116.113 Y73.629 E.56803
G1 X116.113 Y74.165 E.01689
G1 X128.86 Y86.912 E.56803
G1 X128.86 Y87.448 E.01689
G1 X116.113 Y74.7 E.56803
G1 X116.113 Y75.236 E.01689
G1 X128.86 Y87.983 E.56803
G1 X128.86 Y88.519 E.01689
G1 X116.113 Y75.772 E.56803
G1 X116.113 Y76.308 E.01689
G1 X128.86 Y89.055 E.56803
G1 X128.86 Y89.591 E.01689
G1 X116.113 Y76.844 E.56803
G1 X116.113 Y77.38 E.01689
G1 X128.86 Y90.127 E.56803
G1 X128.86 Y90.663 E.01689
G1 X116.113 Y77.916 E.56803
G1 X116.113 Y78.452 E.01689
G1 X128.86 Y91.199 E.56803
G1 X128.86 Y91.735 E.01689
G1 X116.113 Y78.988 E.56803
G1 X116.113 Y79.524 E.01689
G1 X128.86 Y92.271 E.56803
G1 X128.86 Y92.807 E.01689
G1 X116.113 Y80.06 E.56803
G1 X116.113 Y80.595 E.01689
G1 X128.86 Y93.343 E.56803
G1 X128.86 Y93.878 E.01689
G1 X116.113 Y81.131 E.56803
G1 X116.113 Y81.667 E.01689
G1 X128.86 Y94.414 E.56803
G1 X128.86 Y94.95 E.01689
M73 P1 R60
M73 Q2 S61
G1 X116.113 Y82.203 E.56803
G1 X116.113 Y82.739 E.01689
M73 P2 R60
G1 X128.86 Y95.486 E.56803
G1 X128.86 Y96.022 E.01689
G1 X116.113 Y83.275 E.56803
G1 X116.113 Y83.811 E.01689
G1 X128.86 Y96.558 E.56803
G1 X128.86 Y97.094 E.01689
G1 X116.113 Y84.347 E.56803
G1 X116.113 Y84.883 E.01689
M73 Q2 S60
G1 X128.86 Y97.63 E.56803
G1 X128.86 Y98.166 E.01689
G1 X116.113 Y85.419 E.56803
G1 X116.113 Y85.955 E.01689
G1 X128.86 Y98.702 E.56803
G1 X128.86 Y99.238 E.01689
G1 X116.113 Y86.49 E.56803
G1 X116.113 Y87.026 E.01689
G1 X128.86 Y99.773 E.56803
G1 X128.86 Y100.309 E.01689
G1 X116.113 Y87.562 E.56803
G1 X116.113 Y88.098 E.01689
G1 X128.86 Y100.845 E.56803
G1 X128.86 Y101.381 E.01689
G1 X116.113 Y88.634 E.56803
G1 X116.113 Y89.17 E.01689
G1 X128.86 Y101.917 E.56803
G1 X128.86 Y102.453 E.01689
G1 X116.113 Y89.706 E.56803
G1 X116.113 Y90.242 E.01689
G1 X128.86 Y102.989 E.56803
G1 X128.86 Y103.525 E.01689
G1 X116.113 Y90.778 E.56803
G1 X116.113 Y91.314 E.01689
G1 X128.86 Y104.061 E.56803
G1 X128.86 Y104.597 E.01689
G1 X116.113 Y91.85 E.56803
G1 X116.113 Y92.385 E.01689
G1 X128.86 Y105.133 E.56803
G1 X128.86 Y105.668 E.01689
G1 X116.113 Y92.921 E.56803
G1 X116.113 Y93.457 E.01689
G1 X128.86 Y106.204 E.56803
G1 X128.86 Y106.74 E.01689
G1 X116.113 Y93.993 E.56803
G1 X116.113 Y94.529 E.01689
G1 X128.86 Y107.276 E.56803
G1 X128.86 Y107.812 E.01689
G1 X116.113 Y95.065 E.56803
G1 X116.113 Y95.601 E.01689
G1 X128.86 Y108.348 E.56803
G1 X128.86 Y108.884 E.01689
G1 X116.113 Y96.137 E.56803
G1 X116.113 Y96.673 E.01689
G1 X128.86 Y109.42 E.56803
G1 X128.86 Y109.956 E.01689
G1 X116.113 Y97.209 E.56803
G1 X116.113 Y97.745 E.01689
G1 X128.86 Y110.492 E.56803
G1 X128.86 Y111.028 E.01689
G1 X116.113 Y98.28 E.56803
G1 X116.113 Y98.816 E.01689
G1 X128.86 Y111.563 E.56803
G1 X128.86 Y112.099 E.01689
G1 X116.113 Y99.352 E.56803
G1 X116.113 Y99.888 E.01689
G1 X128.86 Y112.635 E.56803
G1 X128.86 Y113.171 E.01689
G1 X116.113 Y100.424 E.56803
G1 X116.113 Y100.96 E.01689
G1 X128.86 Y113.707 E.56803
G1 X128.86 Y114.243 E.01689
G1 X116.113 Y101.496 E.56803
G1 X116.113 Y102.032 E.01689
G1 X128.86 Y114.779 E.56803
G1 X128.86 Y115.315 E.01689
G1 X116.113 Y102.568 E.56803
G1 X116.113 Y103.104 E.01689
G1 X128.86 Y115.851 E.56803
G1 X128.86 Y116.387 E.01689
M73 Q3 S60
G1 X116.113 Y103.64 E.56803
G1 X116.113 Y104.175 E.01689
M73 P3 R60
G1 X128.86 Y116.923 E.56803
G1 X128.86 Y117.458 E.01689
G1 X116.113 Y104.711 E.56803
G1 X116.113 Y105.247 E.01689
G1 X128.86 Y117.994 E.56803
G1 X128.86 Y118.53 E.01689
G1 X116.113 Y105.783 E.56803
G1 X116.113 Y106.319 E.01689
G1 X128.86 Y119.066 E.56803
G1 X128.86 Y119.602 E.01689
G1 X116.113 Y106.855 E.56803
G1 X116.113 Y107.391 E.01689
G1 X128.86 Y120.138 E.56803
G1 X128.86 Y120.674 E.01689
G1 X116.113 Y107.927 E.56803
G1 X116.113 Y108.463 E.01689
G1 X128.86 Y121.21 E.56803
G1 X128.86 Y121.746 E.01689
G1 X116.113 Y108.999 E.56803
G1 X116.113 Y109.535 E.01689
G1 X128.86 Y122.282 E.56803
G1 X128.86 Y122.818 E.01689
G1 X116.113 Y110.07 E.56803
G1 X116.113 Y110.606 E.01689
G1 X128.86 Y123.353 E.56803
G1 X128.86 Y123.889 E.01689
G1 X116.113 Y111.142 E.56803
G1 X116.113 Y111.678 E.01689
G1 X128.86 Y124.425 E.56803
G1 X128.86 Y124.961 E.01689
G1 X116.113 Y112.214 E.56803
G1 X116.113 Y112.75 E.01689
G1 X128.86 Y125.497 E.56803
G1 X128.86 Y126.033 E.01689
G1 X116.113 Y113.286 E.56803
G1 X116.113 Y113.822 E.01689
G1 X128.86 Y126.569 E.56803
G1 X128.86 Y127.105 E.01689
G1 X116.113 Y114.358 E.56803
G1 X116.113 Y114.894 E.01689
G1 X128.86 Y127.641 E.56803
G1 X128.86 Y128.177 E.01689
G1 X116.113 Y115.43 E.56803
G1 X116.113 Y115.965 E.01689
G1 X128.86 Y128.713 E.56803
G1 X128.86 Y129.248 E.01689
M73 P3 R59
G1 X116.113 Y116.501 E.56803
G1 X116.113 Y117.037 E.01689
G1 X128.86 Y129.784 E.56803
G1 X128.86 Y130.32 E.01689
G1 X116.113 Y117.573 E.56803
G1 X116.113 Y118.109 E.01689
G1 X128.86 Y130.856 E.56803
G1 X128.86 Y131.392 E.01689
G1 X116.113 Y118.645 E.56803
G1 X116.113 Y119.181 E.01689
M73 Q3 S59
G1 X128.86 Y131.928 E.56803
G1 X128.86 Y132.464 E.01689
G1 X116.113 Y119.717 E.56803
G1 X116.113 Y120.253 E.01689
G1 X128.86 Y133 E.56803
G1 X128.86 Y133.536 E.01689
G1 X116.113 Y120.789 E.56803
G1 X116.113 Y121.325 E.01689
G1 X128.86 Y134.072 E.56803
G1 X128.86 Y134.608 E.01689
G1 X116.113 Y121.86 E.56803
G1 X116.113 Y122.396 E.01689
G1 X128.86 Y135.143 E.56803
G1 X128.86 Y135.679 E.01689
G1 X116.113 Y122.932 E.56803
G1 X116.113 Y123.468 E.01689
G1 X128.86 Y136.215 E.56803
G1 X128.86 Y136.751 E.01689
G1 X116.113 Y124.004 E.56803
G1 X116.113 Y124.54 E.01689
G1 X128.86 Y137.287 E.56803
G1 X128.86 Y137.823 E.01689
M73 P4 R59
M73 Q4 S59
G1 X116.113 Y125.076 E.56803
G1 X116.113 Y125.612 E.01689
G1 X128.86 Y138.359 E.56803
G1 X128.86 Y138.895 E.01689
G1 X116.113 Y126.148 E.56803
G1 X116.113 Y126.684 E.01689
G1 X128.86 Y139.431 E.56803
G1 X128.86 Y139.967 E.01689
G1 X116.113 Y127.22 E.56803
G1 X116.113 Y127.755 E.01689
G1 X128.86 Y140.503 E.56803
G1 X128.86 Y141.038 E.01689
G1 X116.113 Y128.291 E.56803
G1 X116.113 Y128.827 E.01689
G1 X128.86 Y141.574 E.56803
G1 X128.86 Y142.11 E.01689
G1 X116.113 Y129.363 E.56803
G1 X116.113 Y129.899 E.01689
G1 X128.86 Y142.646 E.56803
G1 X128.86 Y143.182 E.01689
G1 X116.113 Y130.435 E.56803
G1 X116.113 Y130.971 E.01689
G1 X128.86 Y143.718 E.56803
G1 X128.86 Y144.254 E.01689
G1 X116.113 Y131.507 E.56803
G1 X116.113 Y132.043 E.01689
G1 X128.86 Y144.79 E.56803
G1 X128.86 Y145.326 E.01689
G1 X116.113 Y132.579 E.56803
G1 X116.113 Y133.115 E.01689
G1 X128.86 Y145.862 E.56803
G1 X128.86 Y146.398 E.01689
G1 X116.113 Y133.65 E.56803
G1 X116.113 Y134.186 E.01689
G1 X128.86 Y146.933 E.56803
G1 X128.86 Y147.469 E.01689
G1 X116.113 Y134.722 E.56803
G1 X116.113 Y135.258 E.01689
G1 X128.86 Y148.011 E.56815
G1 X128.33 Y148.011 E.01671
G1 X116.113 Y135.794 E.5444
G1 X116.113 Y136.33 E.01689
G1 X127.794 Y148.011 E.52052
G1 X127.258 Y148.011 E.01689
G1 X116.113 Y136.866 E.49664
G1 X116.113 Y137.402 E.01689
G1 X126.723 Y148.011 E.47276
G1 X126.187 Y148.011 E.01689
G1 X116.113 Y137.938 E.44888
G1 X116.113 Y138.474 E.01689
G1 X125.651 Y148.011 E.425
G1 X125.115 Y148.011 E.01689
G1 X116.113 Y139.01 E.40111
G1 X116.113 Y139.545 E.01689
G1 X124.579 Y148.011 E.37723
G1 X124.043 Y148.011 E.01689
G1 X116.113 Y140.081 E.35335
G1 X116.113 Y140.617 E.01689
G1 X123.507 Y148.011 E.32947
G1 X122.971 Y148.011 E.01689
G1 X116.113 Y141.153 E.30559
G1 X116.113 Y141.689 E.01689
G1 X122.435 Y148.011 E.28171
G1 X121.899 Y148.011 E.01689
G1 X116.113 Y142.225 E.25783
G1 X116.113 Y142.761 E.01689
G1 X121.363 Y148.011 E.23395
G1 X120.828 Y148.011 E.01689
G1 X116.113 Y143.297 E.21007
G1 X116.113 Y143.833 E.01689
G1 X120.292 Y148.011 E.18619
G1 X119.756 Y148.011 E.01689
G1 X116.113 Y144.369 E.16231
G1 X116.113 Y144.905 E.01689
G1 X119.22 Y148.011 E.13843
G1 X118.684 Y148.011 E.01689
G1 X116.113 Y145.44 E.11455
G1 X116.113 Y145.976 E.01689
G1 X118.148 Y148.011 E.09067
G1 X117.612 Y148.011 E.01689
G1 X116.113 Y146.512 E.06679
G1 X116.113 Y147.048 E.01689
G1 X117.076 Y148.011 E.0429
G1 X116.54 Y148.011 E.01689
G1 X115.944 Y147.414 E.02659
M204 S1000
; stop printing object Front Panel Holders v2 id:0 copy 0
M106 S84.15
;LAYER_CHANGE
;Z:0.4
;HEIGHT:0.2
;BEFORE_LAYER_CHANGE
G92 E0.0
;0.4


;WIPE_START
G1 F8640
G1 X116.54 Y148.011 E-.19482
G1 X117.076 Y148.011 E-.12374
G1 X116.113 Y147.048 E-.31441
G1 X116.113 Y146.512 E-.12374
G1 X116.123 Y146.522 E-.00328
;WIPE_END
G1 E-.04 F2100
G1 Z.6 F720
;AFTER_LAYER_CHANGE
;0.4
G1 X112.61 Y146.522 F10800
G1 Z.4 F720
G1 E.8 F2100
;TYPE:Skirt/Brim
;WIDTH:0.42
G1 F3000
G1 X112.61 Y67.137 E2.48906
G1 X113.001 Y65.83 E.04278
G1 X114.047 Y64.954 E.04278
G1 X114.987 Y64.76 E.03008
G1 X129.987 Y64.76 E.47031
G1 X131.294 Y65.152 E.04278
G1 X132.17 Y66.198 E.04278
G1 X132.364 Y67.137 E.03008
G1 X132.364 Y149.137 E2.57105
G1 X131.972 Y150.444 E.04278
G1 X130.927 Y151.321 E.04278
G1 X129.987 Y151.515 E.03008
G1 X114.987 Y151.515 E.47031
G1 X113.68 Y151.123 E.04278
G1 X112.803 Y150.077 E.04278
G1 X112.61 Y149.137 E.03008
G1 X112.61 Y146.582 E.08011
; printing object Front Panel Holders v2 id:0 copy 0
;WIPE_START
G1 F8640
G1 X112.61 Y143.291 E-.76
;WIPE_END
G1 E-.04 F2100
G1 Z.8 F720
G1 X129.355 Y148.505 F10800
G1 Z.4 F720
G1 E.8 F2100
M204 S800
;TYPE:Perimeter
;WIDTH:0.449999
G1 F3600
G1 X115.619 Y148.505 E.46494
G1 X115.619 Y67.77 E2.73281
G1 X129.355 Y67.77 E.46494
M73 Q5 S59
G1 X129.355 Y148.445 E2.73078
M204 S1000
M73 P5 R59
G1 X129.762 Y148.912 F10800
M204 S800
;TYPE:External perimeter
G1 F2100
G1 X115.212 Y148.912 E.4925
G1 X115.212 Y67.362 E2.76037
G1 X129.762 Y67.362 E.4925
G1 X129.762 Y148.852 E2.75834
M204 S1000
G1 X129.404 Y148.733 F10800
;WIPE_START
M73 P5 R58
G1 F8640
G1 X126.471 Y148.866 E-.76
;WIPE_END
G1 E-.04 F2100
G1 Z.8 F720
G1 X129.172 Y147.494 F10800
G1 Z.4 F720
G1 E.8 F2100
;TYPE:Solid infill
;WIDTH:0.452432
G1 F10988.689
G1 X128.527 Y148.139 E.03105
G1 X127.948 Y148.139 E.01972
G1 X128.988 Y147.098 E.05012
G1 X128.988 Y146.519 E.01972
G1 X127.368 Y148.139 E.07801
G1 X126.789 Y148.139 E.01972
G1 X128.988 Y145.94 E.1059
G1 X128.988 Y145.361 E.01972
G1 X126.21 Y148.139 E.13379
G1 X125.631 Y148.139 E.01972
G1 X128.988 Y144.782 E.16168
G1 X128.988 Y144.202 E.01972
G1 X125.052 Y148.139 E.18957
G1 X124.473 Y148.139 E.01972
G1 X128.988 Y143.623 E.21745
G1 X128.988 Y143.044 E.01972
G1 X123.894 Y148.139 E.24534
G1 X123.315 Y148.139 E.01972
G1 X128.988 Y142.465 E.27323
G1 X128.988 Y141.886 E.01972
G1 X122.735 Y148.139 E.30112
G1 X122.156 Y148.139 E.01972
G1 X128.988 Y141.307 E.32901
G1 X128.988 Y140.728 E.01972
G1 X121.577 Y148.139 E.3569
G1 X120.998 Y148.139 E.01972
G1 X128.988 Y140.149 E.38479
G1 X128.988 Y139.569 E.01972
G1 X120.419 Y148.139 E.41267
G1 X119.84 Y148.139 E.01972
G1 X128.988 Y138.99 E.44056
G1 X128.988 Y138.411 E.01972
G1 X119.261 Y148.139 E.46845
G1 X118.681 Y148.139 E.01972
G1 X128.988 Y137.832 E.49634
G1 X128.988 Y137.253 E.01972
G1 X118.102 Y148.139 E.52423
G1 X117.523 Y148.139 E.01972
G1 X128.988 Y136.674 E.55212
G1 X128.988 Y136.095 E.01972
G1 X116.944 Y148.139 E.58001
G1 X116.365 Y148.139 E.01972
G1 X128.988 Y135.515 E.60789
G1 X128.988 Y134.936 E.01972
G1 X115.985 Y147.939 E.62617
G1 X115.985 Y147.36 E.01972
M73 Q5 S58
G1 X128.988 Y134.357 E.62617
G1 X128.988 Y133.778 E.01972
G1 X115.985 Y146.781 E.62617
