; generated by PrusaSlicer 2.5.2+win64 on 2023-05-26 at 01:56:26 UTC


;
;

;
;

;
;
; 

; external perimeters extrusion width = 0.45mm
; perimeters extrusion width = 0.45mm
; infill extrusion width = 0.45mm
; solid infill extrusion width = 0.45mm
; top infill extrusion width = 0.45mm
; support material extrusion width = 0.37mm
; first layer extrusion width = 0.50mm

; external perimeters extrusion width = 0.45mm
; perimeters extrusion width = 0.45mm
; infill extrusion width = 0.45mm
; solid infill extrusion width = 0.45mm
; top infill extrusion width = 0.45mm
; support material extrusion width = 0.37mm
; first layer extrusion width = 0.50mm

M73 P0 R134
M201 X2500 Y2500 Z200 E2500 ; sets maximum accelerations, mm/sec^2
M203 X200 Y200 Z40 E100 ; sets maximum feedrates, mm / sec
M204 P2000 R1200 T2000 ; sets acceleration (P, T) and retract acceleration (R), mm/sec^2
M205 X8.00 Y8.00 Z2.00 E10.00 ; sets the jerk limits, mm/sec
M205 S0 T0 ; sets the minimum extruding and travel feed rate, mm/sec
M107
;TYPE:Custom
M17 ; enable steppers
M862.3 P "MK4" ; printer model check
M862.1 P0.4 ; nozzle diameter check
M330 SYSLOG
M331 loadcell_raw
M331 loadcell_threshold
M331 loadcell_hysteresis
M331 loadcell_scale
M331 probe_z
M331 probe_z_raw
M331 probe_z_diff
M331 home_diff
M331 fsensor_raw
M331 temp_hbr
M331 temp_bed
M331 temp_noz
M331 temp_brd
M331 ttemp_bed
M331 ttemp_noz
M331 pos_z
M331 fan_speed
M331 fan_hbr_speed
M331 tmc_sg_x
M331 tmc_sg_y
M331 tmc_sg_z
M331 tmc_sg_e

M555 X20.1632 Y91.3336 W178.948 H63.7122

G90 ; use absolute coordinates
M92 E380 ; set steps/mm for extruder
M83 ; extruder relative mode

M140 S60 ; set bed temp

M104 S170 ; set extruder temp for bed leveling
M109 R170 ; wait for temp


M84 E ; turn off E motor

G28 ; home all without mesh bed level

; probe to clean the nozzle
G1 X52.1632 Y91.3336 Z5 F4800

M302 S160 ; lower cold extrusion limit to 160C


G1 E-2 F2400 ; retraction


M84 E ; turn off E motor

G29 P9 X20.1632 Y91.3336 W32 H4

M106 S100

G0 X20.1632 Y91.3336 Z40 F10000

M190 S60 ; wait for bed temp

M107

;
; MBL
;
M84 E ; turn off E motor
G29 ; mesh bed leveling
M104 S215 ; set extruder temp
G0 X20.1632 Y90.8336 Z30 F4800

M109 S215 ; wait for extruder temp
G1 Z0.2 F720
G92 E0

M569 S0 E ; set spreadcycle mode for extruder

;
; Extrude purge line
;

G1 E2 F2400 ; deretraction


; move right
G1 X52.1632 E4.8 F1000
; move down
G1 Y89.3336 E0.225 F1000
; move left
G1 X20.1632 E9.6 F800

G92 E0
M221 S100 ; set flow to 100%
G21 ; set units to millimeters
G90 ; use absolute coordinates
M83 ; use relative distances for extrusion
M900 K0.06 ; Filament gcode

M142 S36 ; set heatbreak target temp
M107
;LAYER_CHANGE
;Z:0.2
;HEIGHT:0.2
;BEFORE_LAYER_CHANGE
G92 E0.0
;0.2


G1 E-.8 F2100
G1 Z.2 F720
;AFTER_LAYER_CHANGE
;0.2
; printing object SD Card Panel Mount v1 id:0 copy 1
G1 Z.4
G1 X36.943 Y99.343 F12000
G1 Z.2 F720
G1 E.8 F1500
M204 P600
;TYPE:Support material
;WIDTH:0.5
G1 F1200
G1 X41.663 Y104.062 E.25366
G1 X34.158 Y104.062 E.28524
G1 X34.158 Y144.862 E1.55066
G1 X35.858 Y144.862 E.06461
G1 X35.858 Y142.596 E.08611
G1 X35.496 Y141.724 E.03589
G1 X36.376 Y139.598 E.08745
G1 X37.354 Y139.193 E.04022
G1 X42.719 Y133.829 E.28832
G1 X55.497 Y133.829 E.48565
G1 X62.358 Y140.69 E.36877
G1 X62.358 Y144.862 E.15858
G1 X64.058 Y144.862 E.06461
G1 X64.058 Y104.062 E1.55066
G1 X56.969 Y104.062 E.26943
G1 X65.469 Y95.562 E.45687
G1 X70.835 Y95.562 E.20395
G1 X72.813 Y152.202 E2.15399
G1 X61.685 Y152.202 E.42293
G1 X61.685 Y147.362 E.18396
G1 X61.006 Y147.362 E.0258
G1 X60.796 Y147.275 E.00865
G1 X60.356 Y146.835 E.02364
G1 X37.859 Y146.835 E.85501
G1 X37.332 Y147.362 E.02832
G1 X36.53 Y147.362 E.03048
G1 X36.53 Y152.202 E.18396
G1 X25.403 Y152.202 E.42293
G1 X27.381 Y95.562 E2.15399
G1 X33.163 Y95.562 E.21977
G1 X36.895 Y99.294 E.20059
M204 P1000
G1 E-.64 F2100
;WIPE_START
G1 F9600
G1 X36.378 Y98.777 E-.152
;WIPE_END
G1 E-.008 F2100
G1 Z.4 F720
G1 X71.962 Y151.997 F12000
G1 Z.2 F720
G1 E.8 F1500
M204 P600
G1 F1200
G1 X71.962 Y139.619 E.47041
G1 X71.39 Y123.258 E.6222
G1 X71.39 Y151.791 E1.08442
G1 X70.819 Y151.791 E.02171
G1 X70.819 Y106.897 E1.70624
G1 X70.437 Y95.974 E.41542
G1 X70.248 Y95.974 E.00722
G1 X70.248 Y151.791 E2.12141
G1 X69.676 Y151.791 E.02171
G1 X69.676 Y95.974 E2.12141
G1 X69.105 Y95.974 E.02171
G1 X69.105 Y151.791 E2.12141
G1 X68.533 Y151.791 E.02171
M73 P0 R133
G1 X68.533 Y95.974 E2.12141
G1 X67.962 Y95.974 E.02171
G1 X67.962 Y151.791 E2.12141
G1 X67.391 Y151.791 E.02171
G1 X67.391 Y95.974 E2.12141
G1 X66.819 Y95.974 E.02171
G1 X66.819 Y151.791 E2.12141
G1 X66.248 Y151.791 E.02171
G1 X66.248 Y95.974 E2.12141
G1 X65.677 Y95.974 E.02171
G1 X65.677 Y151.791 E2.12141
G1 X65.105 Y151.791 E.02171
G1 X65.105 Y96.507 E2.10113
G1 X64.534 Y97.079 E.03071
G1 X64.534 Y151.791 E2.07942
G1 X63.963 Y151.791 E.02171
G1 X63.963 Y145.274 E.2477
G1 X63.391 Y145.274 E.02171
G1 X63.391 Y151.791 E.2477
G1 X62.82 Y151.791 E.02171
G1 X62.82 Y145.274 E.2477
G1 X62.249 Y145.274 E.02171
G1 X62.249 Y151.791 E.2477
G1 X62.096 Y151.791 E.0058
G1 X62.096 Y146.951 E.18396
G1 X61.677 Y146.951 E.01592
G1 X61.677 Y140.591 E.2417
G1 X61.106 Y140.02 E.03071
G1 X61.106 Y146.951 E.26341
G1 X61.088 Y146.951 E.00069
G1 X61.029 Y146.926 E.00243
G1 X60.535 Y146.432 E.02656
G1 X60.535 Y139.449 E.26541
G1 X59.963 Y138.877 E.03071
G1 X59.963 Y146.424 E.28681
G1 X59.392 Y146.424 E.02171
G1 X59.392 Y138.306 E.30853
G1 X58.821 Y137.735 E.03071
G1 X58.821 Y146.424 E.33024
G1 X58.249 Y146.424 E.02171
G1 X58.249 Y137.163 E.35196
G1 X57.678 Y136.592 E.03071
G1 X57.678 Y146.424 E.37367
G1 X57.106 Y146.424 E.02171
G1 X57.107 Y136.02 E.39539
G1 X56.535 Y135.449 E.03071
G1 X56.535 Y146.424 E.4171
G1 X55.964 Y146.424 E.02171
G1 X55.964 Y134.878 E.43882
G1 X55.392 Y134.306 E.03071
G1 X55.392 Y146.424 E.46053
G1 X54.821 Y146.424 E.02171
G1 X54.821 Y134.24 E.46305
G1 X54.25 Y134.24 E.02171
G1 X54.25 Y146.424 E.46305
G1 X53.678 Y146.424 E.02171
G1 X53.678 Y134.24 E.46305
G1 X53.107 Y134.24 E.02171
G1 X53.107 Y146.424 E.46305
G1 X52.536 Y146.424 E.02171
G1 X52.536 Y134.24 E.46305
G1 X51.964 Y134.24 E.02171
G1 X51.964 Y146.424 E.46305
G1 X51.393 Y146.424 E.02171
G1 X51.393 Y134.24 E.46305
G1 X50.822 Y134.24 E.02171
G1 X50.822 Y146.424 E.46305
G1 X50.25 Y146.424 E.02171
G1 X50.25 Y134.24 E.46305
G1 X49.679 Y134.24 E.02171
G1 X49.679 Y146.424 E.46305
G1 X49.108 Y146.424 E.02171
G1 X49.108 Y134.24 E.46305
G1 X48.536 Y134.24 E.02171
G1 X48.536 Y146.424 E.46305
G1 X47.965 Y146.424 E.02171
G1 X47.965 Y134.24 E.46305
G1 X47.394 Y134.24 E.02171
M73 P1 R133
G1 X47.394 Y146.424 E.46305
G1 X46.822 Y146.424 E.02171
G1 X46.822 Y134.24 E.46305
G1 X46.251 Y134.24 E.02171
G1 X46.251 Y146.424 E.46305
G1 X45.68 Y146.424 E.02171
G1 X45.68 Y134.24 E.46305
G1 X45.108 Y134.24 E.02171
G1 X45.108 Y146.424 E.46305
G1 X44.537 Y146.424 E.02171
G1 X44.537 Y134.24 E.46305
G1 X43.965 Y134.24 E.02171
G1 X43.965 Y146.424 E.46305
G1 X43.394 Y146.424 E.02171
G1 X43.394 Y134.24 E.46305
G1 X42.889 Y134.24 E.0192
G1 X42.823 Y134.306 E.00356
G1 X42.823 Y146.424 E.46053
G1 X42.251 Y146.424 E.02171
G1 X42.251 Y134.878 E.43882
G1 X41.68 Y135.449 E.03071
G1 X41.68 Y146.424 E.4171
G1 X41.109 Y146.424 E.02171
G1 X41.109 Y136.02 E.39539
G1 X40.537 Y136.592 E.03071
G1 X40.537 Y146.424 E.37367
G1 X39.966 Y146.424 E.02171
G1 X39.966 Y137.163 E.35196
G1 X39.395 Y137.735 E.03071
G1 X39.395 Y146.424 E.33024
G1 X38.823 Y146.424 E.02171
G1 X38.823 Y138.306 E.30853
G1 X38.252 Y138.877 E.03071
G1 X38.252 Y146.424 E.28681
G1 X37.689 Y146.424 E.0214
G1 X37.681 Y146.432 E.00045
G1 X37.681 Y139.449 E.26541
G1 X37.587 Y139.542 E.00502
G1 X37.109 Y139.74 E.01966
G1 X37.109 Y146.951 E.27406
G1 X36.538 Y146.951 E.02171
G1 X36.538 Y140.284 E.25339
G1 X35.967 Y141.664 E.05677
G1 X35.967 Y141.785 E.0046
G1 X36.269 Y142.515 E.03003
G1 X36.269 Y145.274 E.10486
G1 X35.967 Y145.274 E.01149
G1 X35.967 Y151.791 E.2477
G1 X35.395 Y151.791 E.02171
G1 X35.395 Y145.274 E.2477
G1 X34.824 Y145.274 E.02171
G1 X34.824 Y151.791 E.2477
G1 X34.253 Y151.791 E.02171
G1 X34.253 Y145.274 E.2477
G1 X33.746 Y145.274 E.01924
G1 X33.746 Y103.651 E1.58193
G1 X34.253 Y103.651 E.01924
G1 X34.253 Y97.234 E.2439
G1 X34.824 Y97.805 E.03071
G1 X34.824 Y103.651 E.22218
G1 X35.395 Y103.651 E.02171
G1 X35.395 Y98.376 E.20047
G1 X35.967 Y98.948 E.03071
G1 X35.967 Y103.651 E.17876
G1 X36.538 Y103.651 E.02171
G1 X36.538 Y99.519 E.15704
G1 X37.109 Y100.09 E.03071
G1 X37.109 Y103.651 E.13532
G1 X37.681 Y103.651 E.02171
M73 P1 R132
G1 X37.681 Y100.662 E.11361
G1 X38.252 Y101.233 E.03071
G1 X38.252 Y103.651 E.09189
G1 X38.823 Y103.651 E.02171
G1 X38.823 Y101.804 E.07017
G1 X39.395 Y102.376 E.03071
G1 X39.395 Y103.651 E.04846
G1 X39.966 Y103.651 E.02171
G1 X39.966 Y102.947 E.02674
G1 X40.537 Y103.519 E.03071
G1 X40.537 Y103.857 E.01284
M204 P1000
G1 E-.64 F2100
;WIPE_START
G1 F9600
G1 X40.537 Y103.519 E-.07022
G1 X40.259 Y103.24 E-.08178
;WIPE_END
G1 E-.008 F2100
G1 Z.4 F720
G1 X63.963 Y103.857 F12000
G1 Z.2 F720
G1 E.8 F1500
M204 P600
G1 F1200
G1 X63.963 Y97.65 E.2359
G1 X63.391 Y98.221 E.03071
G1 X63.391 Y103.651 E.20636
G1 X62.82 Y103.651 E.02171
G1 X62.82 Y98.793 E.18465
G1 X62.249 Y99.364 E.03071
G1 X62.249 Y103.651 E.16293
G1 X61.677 Y103.651 E.02171
G1 X61.677 Y99.935 E.14122
G1 X61.106 Y100.507 E.03071
G1 X61.106 Y103.651 E.1195
G1 X60.535 Y103.651 E.02171
G1 X60.535 Y101.078 E.09779
G1 X59.963 Y101.649 E.03071
G1 X59.963 Y103.651 E.07607
G1 X59.392 Y103.651 E.02171
G1 X59.392 Y102.221 E.05436
G1 X58.821 Y102.792 E.03071
G1 X58.821 Y103.651 E.03264
G1 X58.249 Y103.651 E.02171
G1 X58.249 Y103.072 E.02198
M204 P1000
G1 E-.64 F2100
;WIPE_START
G1 F9600
G1 X58.249 Y103.651 E-.1202
G1 X58.402 Y103.651 E-.0318
;WIPE_END
G1 E-.008 F2100
G1 Z.4 F720
G1 X33.681 Y151.997 F12000
G1 Z.2 F720
G1 E.8 F1500
M204 P600
G1 F1200
G1 X33.681 Y96.662 E2.10306
G1 X33.11 Y96.091 E.03071
G1 X33.11 Y151.791 E2.11695
G1 X32.538 Y151.791 E.02171
G1 X32.538 Y95.974 E2.12141
G1 X31.967 Y95.974 E.02171
G1 X31.967 Y151.791 E2.12141
G1 X31.396 Y151.791 E.02171
G1 X31.396 Y95.974 E2.12141
G1 X30.824 Y95.974 E.02171
G1 X30.824 Y151.791 E2.12141
G1 X30.253 Y151.791 E.02171
G1 X30.253 Y95.974 E2.12141
G1 X29.682 Y95.974 E.02171
G1 X29.682 Y151.791 E2.12141
G1 X29.11 Y151.791 E.02171
G1 X29.11 Y95.974 E2.12141
G1 X28.539 Y95.974 E.02171
G1 X28.539 Y151.791 E2.12141
G1 X27.968 Y151.791 E.02171
G1 X27.968 Y95.974 E2.12141
G1 X27.778 Y95.974 E.00722
G1 X27.396 Y106.897 E.4154
G1 X27.396 Y151.791 E1.70626
G1 X26.825 Y151.791 E.02171
G1 X26.825 Y123.258 E1.08443
G1 X26.254 Y139.619 E.62221
G1 X26.254 Y151.997 E.47041
M204 P1000
G1 E-.64 F2100
;WIPE_START
G1 F9600
G1 X26.254 Y151.265 E-.152
;WIPE_END
G1 E-.008 F2100
G1 Z.4 F720
G1 X38.111 Y147.249 F12000
G1 Z.2 F720
G1 E.8 F1500
M204 P600
;TYPE:Support material interface
;WIDTH:0.37
G1 F1200
G1 X36.944 Y148.416 E.0449
G1 X36.944 Y149.161 E.02027
G1 X38.857 Y147.249 E.07357
G1 X39.602 Y147.249 E.02027
G1 X36.944 Y149.907 E.10224
G1 X36.944 Y150.652 E.02027
G1 X40.348 Y147.249 E.13091
G1 X41.093 Y147.249 E.02027
G1 X36.944 Y151.398 E.15958
G1 X36.944 Y152.143 E.02027
G1 X41.838 Y147.249 E.18825
G1 X42.584 Y147.249 E.02027
G1 X37.544 Y152.289 E.19385
G1 X38.289 Y152.289 E.02027
G1 X43.329 Y147.249 E.19385
G1 X44.075 Y147.249 E.02027
G1 X39.035 Y152.289 E.19385
G1 X39.78 Y152.289 E.02027
G1 X44.82 Y147.249 E.19385
G1 X45.565 Y147.249 E.02027
G1 X40.525 Y152.289 E.19385
G1 X41.271 Y152.289 E.02027
G1 X46.311 Y147.249 E.19385
G1 X47.056 Y147.249 E.02027
G1 X42.016 Y152.289 E.19385
G1 X42.762 Y152.289 E.02027
G1 X47.802 Y147.249 E.19385
G1 X48.547 Y147.249 E.02027
G1 X43.507 Y152.289 E.19385
G1 X44.252 Y152.289 E.02027
G1 X49.292 Y147.249 E.19385
G1 X50.038 Y147.249 E.02027
G1 X44.998 Y152.289 E.19385
G1 X45.743 Y152.289 E.02027
G1 X50.783 Y147.249 E.19385
G1 X51.529 Y147.249 E.02027
G1 X46.489 Y152.289 E.19385
G1 X47.234 Y152.289 E.02027
G1 X52.274 Y147.249 E.19385
G1 X53.019 Y147.249 E.02027
G1 X47.979 Y152.289 E.19385
G1 X48.725 Y152.289 E.02027
G1 X53.765 Y147.249 E.19385
G1 X54.51 Y147.249 E.02027
G1 X49.47 Y152.289 E.19385
G1 X50.216 Y152.289 E.02027
G1 X55.256 Y147.249 E.19385
G1 X56.001 Y147.249 E.02027
G1 X50.961 Y152.289 E.19385
G1 X51.706 Y152.289 E.02027
G1 X56.746 Y147.249 E.19385
G1 X57.492 Y147.249 E.02027
G1 X52.452 Y152.289 E.19385
G1 X53.197 Y152.289 E.02027
G1 X58.237 Y147.249 E.19385
G1 X58.983 Y147.249 E.02027
G1 X53.943 Y152.289 E.19385
G1 X54.688 Y152.289 E.02027
G1 X59.728 Y147.249 E.19385
G1 X60.185 Y147.249 E.01242
G1 X60.329 Y147.393 E.00556
G1 X55.433 Y152.289 E.18829
G1 X56.179 Y152.289 E.02027
G1 X60.76 Y147.708 E.17619
G1 X60.924 Y147.776 E.00483
G1 X61.271 Y147.776 E.00945
G1 X61.271 Y147.942 E.00452
G1 X56.924 Y152.289 E.16719
G1 X57.67 Y152.289 E.02027
G1 X61.271 Y148.687 E.13852
G1 X61.271 Y149.433 E.02027
G1 X58.415 Y152.289 E.10985
G1 X59.16 Y152.289 E.02027
G1 X61.271 Y150.178 E.08118
G1 X61.271 Y150.923 E.02027
G1 X59.906 Y152.289 E.05251
G1 X60.651 Y152.289 E.02027
G1 X61.271 Y151.669 E.02384
G1 X61.271 Y152.289 E.01686
G1 X60.815 Y152.289 E.01241
M204 P1000
G1 E-.64 F2100
;WIPE_START
G1 F9600
G1 X61.271 Y152.289 E-.09484
G1 X61.271 Y152.014 E-.05716
;WIPE_END
G1 E-.008 F2100
G1 Z.4 F720
G1 X21.002 Y153.652 F12000
G1 Z.2 F720
G1 E.8 F1500
M204 P600
;TYPE:Perimeter
;WIDTH:0.364381
G1 F1200
G1 X77.213 Y153.652 E1.50248
G1 X77.213 Y153.973 E.00859
G1 X21.002 Y153.973 E1.50248
G1 X21.002 Y153.712 E.00699
M204 P1000
G1 X20.613 Y153.262 F12000
M204 P600
;TYPE:External perimeter
;WIDTH:0.499999
G1 F1200
M73 P1 R131
G1 X77.602 Y153.262 E2.16594
G1 X77.602 Y154.362 E.04181
G1 X20.613 Y154.362 E2.16594
G1 X20.613 Y153.322 E.03953
M204 P1000
M73 P2 R131
G1 X21.013 Y153.265 F12000
; stop printing object SD Card Panel Mount v1 id:0 copy 1
; printing object SD Card Panel Mount v1 id:0 copy 0
G1 E-.64 F2100
;WIPE_START
G1 F9600
G1 X21.345 Y153.321 E-.152
;WIPE_END
G1 E-.008 F2100
G1 Z.4 F720
G1 X102.54 Y147.482 F12000
G1 Z.2 F720
G1 E.8 F1500
M204 P600
;TYPE:Support material interface
;WIDTH:0.37
G1 F1200
G1 X101.373 Y148.65 E.0449
G1 X101.373 Y149.395 E.02027
G1 X103.286 Y147.482 E.07357
G1 X104.031 Y147.482 E.02027
G1 X101.373 Y150.14 E.10224
G1 X101.373 Y150.886 E.02027
G1 X104.776 Y147.482 E.13091
G1 X105.522 Y147.482 E.02027
G1 X101.373 Y151.631 E.15958
G1 X101.373 Y152.377 E.02027
G1 X106.267 Y147.482 E.18825
G1 X107.013 Y147.482 E.02027
G1 X101.973 Y152.522 E.19385
G1 X102.718 Y152.522 E.02027
G1 X107.758 Y147.482 E.19385
G1 X108.503 Y147.482 E.02027
G1 X103.463 Y152.522 E.19385
G1 X104.209 Y152.522 E.02027
G1 X109.249 Y147.482 E.19385
G1 X109.994 Y147.482 E.02027
G1 X104.954 Y152.522 E.19385
G1 X105.7 Y152.522 E.02027
G1 X110.74 Y147.482 E.19385
G1 X111.485 Y147.482 E.02027
G1 X106.445 Y152.522 E.19385
G1 X107.19 Y152.522 E.02027
G1 X112.23 Y147.482 E.19385
G1 X112.976 Y147.482 E.02027
G1 X107.936 Y152.522 E.19385
G1 X108.681 Y152.522 E.02027
G1 X113.721 Y147.482 E.19385
G1 X114.467 Y147.482 E.02027
G1 X109.427 Y152.522 E.19385
G1 X110.172 Y152.522 E.02027
G1 X115.212 Y147.482 E.19385
G1 X115.957 Y147.482 E.02027
G1 X110.917 Y152.522 E.19385
G1 X111.663 Y152.522 E.02027
G1 X116.703 Y147.482 E.19385
G1 X117.448 Y147.482 E.02027
G1 X112.408 Y152.522 E.19385
G1 X113.154 Y152.522 E.02027
G1 X118.194 Y147.482 E.19385
G1 X118.939 Y147.482 E.02027
G1 X113.899 Y152.522 E.19385
G1 X114.644 Y152.522 E.02027
G1 X119.684 Y147.482 E.19385
G1 X120.43 Y147.482 E.02027
G1 X115.39 Y152.522 E.19385
G1 X116.135 Y152.522 E.02027
G1 X121.175 Y147.482 E.19385
G1 X121.921 Y147.482 E.02027
G1 X116.881 Y152.522 E.19385
G1 X117.626 Y152.522 E.02027
G1 X122.666 Y147.482 E.19385
G1 X123.411 Y147.482 E.02027
G1 X118.371 Y152.522 E.19385
G1 X119.117 Y152.522 E.02027
G1 X124.157 Y147.482 E.19385
G1 X124.613 Y147.482 E.01242
G1 X124.758 Y147.627 E.00556
G1 X119.862 Y152.522 E.18829
G1 X120.608 Y152.522 E.02027
G1 X125.189 Y147.941 E.17619
G1 X125.352 Y148.009 E.00483
G1 X125.7 Y148.009 E.00945
G1 X125.7 Y148.175 E.00452
G1 X121.353 Y152.522 E.16719
G1 X122.098 Y152.522 E.02027
G1 X125.7 Y148.921 E.13852
