; generated by PrusaSlicer 2.5.2+win64 on 2023-04-14 at 19:10:40 UTC


;
;

;
;

;
;
; 

; external perimeters extrusion width = 0.45mm
; perimeters extrusion width = 0.45mm
; infill extrusion width = 0.45mm
; solid infill extrusion width = 0.45mm
; top infill extrusion width = 0.45mm
; first layer extrusion width = 0.50mm

M73 P0 R26
M201 X2500 Y2500 Z200 E2500 ; sets maximum accelerations, mm/sec^2
M203 X200 Y200 Z40 E100 ; sets maximum feedrates, mm / sec
M204 P2000 R1200 T2000 ; sets acceleration (P, T) and retract acceleration (R), mm/sec^2
M205 X8.00 Y8.00 Z2.00 E10.00 ; sets the jerk limits, mm/sec
M205 S0 T0 ; sets the minimum extruding and travel feed rate, mm/sec
M107
;TYPE:Custom
M17 ; enable steppers
M862.3 P "MK4" ; printer model check
M862.1 P0.4 ; nozzle diameter check
M330 SYSLOG
M331 loadcell_raw
M331 loadcell_threshold
M331 loadcell_hysteresis
M331 loadcell_scale
M331 probe_z
M331 probe_z_raw
M331 probe_z_diff
M331 home_diff
M331 fsensor_raw
M331 temp_hbr
M331 temp_bed
M331 temp_noz
M331 temp_brd
M331 ttemp_bed
M331 ttemp_noz
M331 pos_z
M331 fan_speed
M331 fan_hbr_speed
M331 tmc_sg_x
M331 tmc_sg_y
M331 tmc_sg_z
M331 tmc_sg_e

M555 X101.056 Y118.25 W47.8889 H6

G90 ; use absolute coordinates
M92 E380 ; set steps/mm for extruder
M83 ; extruder relative mode

M140 S60 ; set bed temp

M104 S170 ; set extruder temp for bed leveling
M109 R170 ; wait for temp


M84 E ; turn off E motor

G28 ; home all without mesh bed level

; probe to clean the nozzle
G1 X133.056 Y118.25 Z5 F4800

M302 S160 ; lower cold extrusion limit to 160C


G1 E-2 F2400 ; retraction


M84 E ; turn off E motor

G29 P9 X101.056 Y118.25 W32 H4

M106 S100

G0 X101.056 Y118.25 Z40 F10000

M190 S60 ; wait for bed temp

M107

;
; MBL
;
M84 E ; turn off E motor
G29 ; mesh bed leveling
M104 S215 ; set extruder temp
G0 X101.056 Y117.75 Z30 F4800

M109 S215 ; wait for extruder temp
G1 Z0.2 F720
G92 E0

M569 S0 E ; set spreadcycle mode for extruder

;
; Extrude purge line
;

G1 E2 F2400 ; deretraction


; move right
G1 X133.056 E4.8 F1000
; move down
G1 Y116.25 E0.225 F1000
; move left
G1 X101.056 E9.6 F800

G92 E0
M221 S100 ; set flow to 100%
G21 ; set units to millimeters
G90 ; use absolute coordinates
M83 ; use relative distances for extrusion
M900 K0.06 ; Filament gcode

M142 S36 ; set heatbreak target temp
M107
;LAYER_CHANGE
;Z:0.2
;HEIGHT:0.2
;BEFORE_LAYER_CHANGE
G92 E0.0
;0.2


G1 E-.8 F2100
G1 Z.2 F720
;AFTER_LAYER_CHANGE
;0.2
; printing object MicroSD Panel Mount id:0 copy 0
G1 Z.4
G1 X101.895 Y123.089 F12000
G1 Z.2 F720
G1 E.8 F1500
M204 P600
;TYPE:Perimeter
;WIDTH:0.36438
G1 F1200
G1 X148.105 Y123.089 E1.23518
G1 X148.105 Y123.411 E.00859
G1 X101.895 Y123.411 E1.23518
G1 X101.895 Y123.149 E.00699
M204 P1000
G1 X101.506 Y122.7 F12000
M204 P600
;TYPE:External perimeter
;WIDTH:0.499999
G1 F1200
G1 X148.494 Y122.7 E1.78587
G1 X148.494 Y123.8 E.04181
M73 P1 R26
G1 X101.506 Y123.8 E1.78587
G1 X101.506 Y122.76 E.03953
M204 P1000
G1 X101.906 Y122.703 F12000
; stop printing object MicroSD Panel Mount id:0 copy 0
M106 S84.15
;LAYER_CHANGE
;Z:0.4
;HEIGHT:0.2
;BEFORE_LAYER_CHANGE
G92 E0.0
;0.4


G1 E-.64 F2100
;WIPE_START
G1 F9600
G1 X102.237 Y122.759 E-.152
;WIPE_END
G1 E-.008 F2100
G1 Z.4 F720
;AFTER_LAYER_CHANGE
;0.4
; printing object MicroSD Panel Mount id:0 copy 0
G1 X101.77 Y122.964 F12000
G1 E.8 F1500
M204 P900
;TYPE:Perimeter
;WIDTH:0.614381
G1 F1459
G1 X148.23 Y122.964 E2.20767
G1 X148.23 Y123.536 E.02715
G1 X101.77 Y123.536 E2.20767
G1 X101.77 Y123.024 E.0243
M204 P1000
G1 X101.281 Y122.475 F12000
M204 P700
;TYPE:External perimeter
;WIDTH:0.449999
G1 F1459
M73 P1 R25
G1 X148.719 Y122.475 E1.60575
G1 X148.719 Y124.025 E.05247
G1 X101.281 Y124.025 E1.60575
G1 X101.281 Y122.535 E.05043
M204 P1000
G1 X101.681 Y122.479 F12000
; stop printing object MicroSD Panel Mount id:0 copy 0
M106 S170.85
;LAYER_CHANGE
;Z:0.6
;HEIGHT:0.2
;BEFORE_LAYER_CHANGE
G92 E0.0
;0.6


G1 E-.64 F2100
;WIPE_START
G1 F9600
G1 X102.012 Y122.534 E-.152
;WIPE_END
G1 E-.008 F2100
G1 Z.6 F720
;AFTER_LAYER_CHANGE
;0.6
; printing object MicroSD Panel Mount id:0 copy 0
G1 X101.77 Y122.964 F12000
G1 E.8 F1500
M204 P900
;TYPE:Perimeter
;WIDTH:0.614381
G1 F1459
G1 X148.23 Y122.964 E2.20767
G1 X148.23 Y123.536 E.02715
G1 X101.77 Y123.536 E2.20767
G1 X101.77 Y123.024 E.0243
M204 P1000
G1 X101.281 Y122.475 F12000
M204 P700
;TYPE:External perimeter
;WIDTH:0.449999
G1 F1459
M73 P2 R25
G1 X148.719 Y122.475 E1.60575
G1 X148.719 Y124.025 E.05247
G1 X101.281 Y124.025 E1.60575
G1 X101.281 Y122.535 E.05043
M204 P1000
G1 X101.681 Y122.479 F12000
; stop printing object MicroSD Panel Mount id:0 copy 0
M106 S255
;LAYER_CHANGE
;Z:0.8
;HEIGHT:0.2
;BEFORE_LAYER_CHANGE
G92 E0.0
;0.8


G1 E-.64 F2100
;WIPE_START
G1 F9600
G1 X102.012 Y122.534 E-.152
;WIPE_END
G1 E-.008 F2100
G1 Z.8 F720
;AFTER_LAYER_CHANGE
;0.8
; printing object MicroSD Panel Mount id:0 copy 0
G1 X101.77 Y122.964 F12000
G1 E.8 F1500
M204 P900
;TYPE:Perimeter
;WIDTH:0.614381
G1 F1459
G1 X148.23 Y122.964 E2.20767
G1 X148.23 Y123.536 E.02715
G1 X101.77 Y123.536 E2.20767
G1 X101.77 Y123.024 E.0243
M204 P1000
G1 X101.281 Y122.475 F12000
M204 P700
;TYPE:External perimeter
;WIDTH:0.449999
G1 F1459
G1 X148.719 Y122.475 E1.60575
G1 X148.719 Y124.025 E.05247
G1 X101.281 Y124.025 E1.60575
G1 X101.281 Y122.535 E.05043
M204 P1000
G1 X101.681 Y122.479 F12000
; stop printing object MicroSD Panel Mount id:0 copy 0
;LAYER_CHANGE
;Z:1
;HEIGHT:0.2
;BEFORE_LAYER_CHANGE
G92 E0.0
;1


G1 E-.64 F2100
;WIPE_START
G1 F9600
G1 X102.012 Y122.534 E-.152
;WIPE_END
G1 E-.008 F2100
G1 Z1 F720
;AFTER_LAYER_CHANGE
;1
; printing object MicroSD Panel Mount id:0 copy 0
G1 X101.77 Y122.964 F12000
G1 E.8 F1500
M204 P900
;TYPE:Perimeter
;WIDTH:0.614381
G1 F1459
G1 X148.23 Y122.964 E2.20767
G1 X148.23 Y123.536 E.02715
G1 X101.77 Y123.536 E2.20767
G1 X101.77 Y123.024 E.0243
M204 P1000
G1 X101.281 Y122.475 F12000
M204 P700
;TYPE:External perimeter
;WIDTH:0.449999
M73 P3 R25
G1 F1459
G1 X148.719 Y122.475 E1.60575
G1 X148.719 Y124.025 E.05247
G1 X101.281 Y124.025 E1.60575
G1 X101.281 Y122.535 E.05043
M204 P1000
G1 X101.681 Y122.479 F12000
; stop printing object MicroSD Panel Mount id:0 copy 0
;LAYER_CHANGE
;Z:1.2
;HEIGHT:0.2
;BEFORE_LAYER_CHANGE
G92 E0.0
;1.2


G1 E-.64 F2100
;WIPE_START
G1 F9600
G1 X102.012 Y122.534 E-.152
;WIPE_END
G1 E-.008 F2100
G1 Z1.2 F720
;AFTER_LAYER_CHANGE
;1.2
; printing object MicroSD Panel Mount id:0 copy 0
G1 Z1.4
G1 X136.138 Y122.67 F12000
G1 Z1.2 F720
G1 E.8 F1500
M204 P900
;TYPE:Perimeter
;WIDTH:0.491095
G1 F2700
G1 X136.212 Y122.719 E.00331
;WIDTH:0.53219
G1 X136.334 Y122.801 E.00598
;WIDTH:0.573286
G1 X136.456 Y122.883 E.00648
;WIDTH:0.614381
G1 X136.579 Y122.964 E.00698
G1 X148.23 Y122.964 E.55365
G1 X148.23 Y123.25 E.01358
G1 X148.23 Y123.536 E.01358
G1 X136.579 Y123.536 E.55365
G1 X136.334 Y123.556 E.01167
;WIDTH:0.573286
G1 X136.089 Y123.577 E.01083
;WIDTH:0.53219
G1 X135.845 Y123.597 E.00999
;WIDTH:0.491095
G1 X135.6 Y123.618 E.00915
;WIDTH:0.449999
G1 X114.4 Y123.618 E.71759
;WIDTH:0.491095
G1 X114.155 Y123.597 E.00915
;WIDTH:0.53219
G1 X113.911 Y123.577 E.00999
;WIDTH:0.573286
G1 X113.666 Y123.556 E.01083
;WIDTH:0.614381
G1 X113.421 Y123.536 E.01167
G1 X101.77 Y123.536 E.55365
G1 X101.77 Y122.964 E.02715
G1 X113.421 Y122.964 E.55365
;WIDTH:0.621795
G1 X113.542 Y122.958 E.0058
G1 X113.634 Y122.878 E.00587
;WIDTH:0.578846
G1 X113.726 Y122.798 E.00543
;WIDTH:0.535897
G1 X113.818 Y122.718 E.005
;WIDTH:0.492948
G1 X113.91 Y122.638 E.00456
;WIDTH:0.449999
G1 X114.032 Y122.271 E.01307
G1 X114.032 Y122.05 E.0075
M204 P1000
;TYPE:Overhang perimeter
G1 F1500
G1 X114.032 Y117.682 E.14785
G1 X135.968 Y117.682 E.7425
G1 X135.968 Y122.05 E.14785
M204 P900
;TYPE:Perimeter
G1 F2700
G1 X135.968 Y122.271 E.0075
G1 X136.089 Y122.636 E.013
M204 P1000
G1 X136.416 Y122.394 F12000
M204 P700
;TYPE:External perimeter
G1 F1500
G1 X136.579 Y122.475 E.00616
G1 X148.719 Y122.475 E.41095
G1 X148.719 Y123.25 E.02623
G1 X148.719 Y124.025 E.02623
G1 X101.281 Y124.025 E1.60575
G1 X101.281 Y122.475 E.05247
G1 X113.421 Y122.475 E.41095
G1 X113.584 Y122.394 E.00616
G1 X113.625 Y122.271 E.00436
G1 X113.625 Y122.05 E.0075
M204 P1000
;TYPE:Overhang perimeter
G1 X113.625 Y117.275 E.16163
G1 X136.375 Y117.275 E.77006
G1 X136.375 Y122.05 E.16163
M204 P700
;TYPE:External perimeter
G1 X136.375 Y122.271 E.0075
G1 X136.397 Y122.337 E.00233
M204 P1000
G1 X136.367 Y122.569 F12000
G1 E-.64 F2100
;WIPE_START
G1 F9600
G1 X136.579 Y122.475 E-.04748
G1 X137.082 Y122.475 E-.10452
;WIPE_END
G1 E-.008 F2100
G1 Z1.4 F720
G1 X114.215 Y118.061 F12000
G1 Z1.2 F720
G1 E.8 F1500
;TYPE:Bridge infill
;WIDTH:0.474473
G1 X135.602 Y118.061 E.76742
G1 X135.602 Y118.492 E.01549
G1 X114.398 Y118.492 E.76085
G1 X114.398 Y118.924 E.01549
G1 X135.602 Y118.924 E.76085
G1 X135.602 Y119.355 E.01549
M73 P4 R25
G1 X114.398 Y119.355 E.76085
G1 X114.398 Y119.787 E.01549
G1 X135.602 Y119.787 E.76085
G1 X135.602 Y120.218 E.01549
G1 X114.398 Y120.218 E.76085
G1 X114.398 Y120.65 E.01549
G1 X135.602 Y120.65 E.76085
G1 X135.602 Y121.082 E.01549
G1 X114.398 Y121.082 E.76085
G1 X114.398 Y121.513 E.01549
G1 X135.602 Y121.513 E.76085
G1 X135.602 Y121.945 E.01549
G1 X114.398 Y121.945 E.76085
G1 X114.398 Y122.298 E.01267
G1 X114.372 Y122.376 E.00296
G1 X135.628 Y122.376 E.76272
G1 X135.772 Y122.808 E.01632
G1 X114.228 Y122.808 E.77305
G1 X114.215 Y122.848 E.00151
G1 X113.918 Y123.146 E.01509
G1 X114.36 Y123.239 E.01619
G1 X136.598 Y123.239 E.798
; stop printing object MicroSD Panel Mount id:0 copy 0
;LAYER_CHANGE
;Z:1.4
;HEIGHT:0.2
;BEFORE_LAYER_CHANGE
G92 E0.0
;1.4


G1 E-.64 F2100
;WIPE_START
G1 F9600
G1 X135.867 Y123.239 E-.152
;WIPE_END
G1 E-.008 F2100
G1 Z1.4 F720
;AFTER_LAYER_CHANGE
;1.4
; printing object MicroSD Panel Mount id:0 copy 0
G1 X136.606 Y122.849 F12000
G1 E.8 F1500
M204 P900
;TYPE:Perimeter
;WIDTH:0.573286
G1 F2700
G1 X136.656 Y122.883 E.00268
;WIDTH:0.614381
G1 X136.779 Y122.964 E.00698
G1 X148.23 Y122.964 E.54415
G1 X148.23 Y123.25 E.01358
G1 X148.23 Y123.536 E.01358
G1 X136.779 Y123.536 E.54415
G1 X136.534 Y123.556 E.01167
;WIDTH:0.573286
G1 X136.289 Y123.577 E.01083
;WIDTH:0.53219
G1 X136.045 Y123.597 E.00999
;WIDTH:0.491095
G1 X135.8 Y123.618 E.00915
;WIDTH:0.449999
G1 X114.2 Y123.618 E.73113
;WIDTH:0.491095
G1 X113.955 Y123.597 E.00915
;WIDTH:0.53219
G1 X113.711 Y123.577 E.00999
;WIDTH:0.573286
G1 X113.466 Y123.556 E.01083
;WIDTH:0.614381
G1 X113.221 Y123.536 E.01167
G1 X101.77 Y123.536 E.54415
G1 X101.77 Y122.964 E.02715
G1 X113.221 Y122.964 E.54415
;WIDTH:0.621795
G1 X113.342 Y122.958 E.0058
G1 X113.434 Y122.878 E.00587
;WIDTH:0.578846
G1 X113.526 Y122.798 E.00543
;WIDTH:0.535897
G1 X113.618 Y122.718 E.005
;WIDTH:0.492948
G1 X113.71 Y122.638 E.00456
;WIDTH:0.449999
G1 X113.832 Y122.271 E.01307
G1 X113.832 Y117.682 E.15534
G1 X136.168 Y117.682 E.75604
G1 X136.168 Y122.271 E.15534
G1 X136.29 Y122.638 E.01307
;WIDTH:0.491095
G1 X136.412 Y122.719 E.00547
;WIDTH:0.53219
G1 X136.534 Y122.801 E.00598
;WIDTH:0.573286
G1 X136.556 Y122.816 E.00115
M204 P1000
G1 X136.779 Y122.475 F12000
M204 P700
;TYPE:External perimeter
;WIDTH:0.449999
G1 F1500
G1 X148.719 Y122.475 E.40419
G1 X148.719 Y124.025 E.05247
G1 X101.281 Y124.025 E1.60575
G1 X101.281 Y122.475 E.05247
G1 X113.221 Y122.475 E.40419
G1 X113.384 Y122.394 E.00616
G1 X113.425 Y122.271 E.00436
G1 X113.425 Y117.275 E.16912
M73 P5 R25
G1 X136.575 Y117.275 E.7836
G1 X136.575 Y122.271 E.16912
G1 X136.616 Y122.394 E.00436
G1 X136.725 Y122.448 E.00413
M204 P1000
G1 X136.882 Y122.861 F12000
G1 E-.64 F2100
;WIPE_START
G1 F9600
G1 X137.456 Y122.45 E-.152
;WIPE_END
G1 E-.008 F2100
G1 Z1.6 F720
G1 X135.985 Y118.7 F12000
G1 Z1.4 F720
G1 E.8 F1500
M204 P1500
;TYPE:Solid infill
;WIDTH:0.455761
G1 F5400
G1 X135.333 Y118.048 E.03165
G1 X134.749 Y118.048 E.02004
G1 X135.802 Y119.101 E.0511
G1 X135.802 Y119.685 E.02004
G1 X134.165 Y118.048 E.07944
G1 X133.581 Y118.048 E.02004
G1 X135.802 Y120.269 E.10779
G1 X135.802 Y120.853 E.02004
G1 X132.997 Y118.048 E.13613
G1 X132.414 Y118.048 E.02004
G1 X135.802 Y121.436 E.16448
G1 X135.802 Y122.02 E.02004
G1 X131.83 Y118.048 E.19282
G1 X131.246 Y118.048 E.02004
G1 X136.354 Y123.156 E.24797
G1 X135.854 Y123.24 E.0174
G1 X130.662 Y118.048 E.25205
G1 X130.078 Y118.048 E.02004
G1 X135.281 Y123.252 E.25259
G1 X134.697 Y123.252 E.02004
G1 X129.494 Y118.048 E.25259
G1 X128.91 Y118.048 E.02004
G1 X134.114 Y123.252 E.25259
G1 X133.53 Y123.252 E.02004
G1 X128.327 Y118.048 E.25259
G1 X127.743 Y118.048 E.02004
G1 X132.946 Y123.252 E.25259
G1 X132.362 Y123.252 E.02004
G1 X127.159 Y118.048 E.25259
G1 X126.575 Y118.048 E.02004
G1 X131.778 Y123.252 E.25259
G1 X131.194 Y123.252 E.02004
G1 X125.991 Y118.048 E.25259
G1 X125.407 Y118.048 E.02004
G1 X130.611 Y123.252 E.25259
G1 X130.027 Y123.252 E.02004
G1 X124.824 Y118.048 E.25259
G1 X124.24 Y118.048 E.02004
G1 X129.443 Y123.252 E.25259
G1 X128.859 Y123.252 E.02004
M73 P5 R24
G1 X123.656 Y118.048 E.25259
G1 X123.072 Y118.048 E.02004
G1 X128.275 Y123.252 E.25259
G1 X127.691 Y123.252 E.02004
G1 X122.488 Y118.048 E.25259
G1 X121.904 Y118.048 E.02004
G1 X127.107 Y123.252 E.25259
G1 X126.524 Y123.252 E.02004
G1 X121.321 Y118.048 E.25259
G1 X120.737 Y118.048 E.02004
G1 X125.94 Y123.252 E.25259
G1 X125.356 Y123.252 E.02004
G1 X120.153 Y118.048 E.25259
G1 X119.569 Y118.048 E.02004
G1 X124.772 Y123.252 E.25259
G1 X124.188 Y123.252 E.02004
G1 X118.985 Y118.048 E.25259
G1 X118.401 Y118.048 E.02004
G1 X123.604 Y123.252 E.25259
G1 X123.021 Y123.252 E.02004
G1 X117.817 Y118.048 E.25259
G1 X117.234 Y118.048 E.02004
G1 X122.437 Y123.252 E.25259
G1 X121.853 Y123.252 E.02004
G1 X116.65 Y118.048 E.25259
G1 X116.066 Y118.048 E.02004
G1 X121.269 Y123.252 E.25259
G1 X120.685 Y123.252 E.02004
G1 X115.482 Y118.048 E.25259
G1 X114.898 Y118.048 E.02004
G1 X120.101 Y123.252 E.25259
G1 X119.517 Y123.252 E.02004
G1 X114.314 Y118.048 E.25259
G1 X114.198 Y118.048 E.00398
G1 X114.198 Y118.516 E.01606
G1 X118.934 Y123.252 E.22988
G1 X118.35 Y123.252 E.02004
G1 X114.198 Y119.1 E.20153
G1 X114.198 Y119.684 E.02004
G1 X117.766 Y123.252 E.17319
G1 X117.182 Y123.252 E.02004
G1 X114.198 Y120.268 E.14485
G1 X114.198 Y120.852 E.02004
G1 X116.598 Y123.252 E.1165
G1 X116.014 Y123.252 E.02004
G1 X114.198 Y121.436 E.08816
G1 X114.198 Y122.019 E.02004
G1 X115.431 Y123.252 E.05981
G1 X114.847 Y123.252 E.02004
G1 X114.122 Y122.527 E.03518
G1 X114.015 Y122.848 E.01161
G1 X113.937 Y122.926 E.00379
G1 X114.446 Y123.435 E.0247
M204 P1000
; stop printing object MicroSD Panel Mount id:0 copy 0
;LAYER_CHANGE
;Z:1.6
;HEIGHT:0.2
;BEFORE_LAYER_CHANGE
G92 E0.0
;1.6


G1 E-.64 F2100
;WIPE_START
G1 F9600
G1 X113.937 Y122.926 E-.14953
G1 X113.946 Y122.918 E-.00247
;WIPE_END
G1 E-.008 F2100
G1 Z1.6 F720
;AFTER_LAYER_CHANGE
;1.6
; printing object MicroSD Panel Mount id:0 copy 0
G1 Z1.8
G1 X136.538 Y122.67 F12000
G1 Z1.6 F720
G1 E.8 F1500
M204 P900
;TYPE:Perimeter
;WIDTH:0.491095
G1 F2700
G1 X136.612 Y122.719 E.00331
;WIDTH:0.53219
G1 X136.734 Y122.801 E.00598
;WIDTH:0.573286
G1 X136.856 Y122.883 E.00648
;WIDTH:0.614381
G1 X136.979 Y122.964 E.00698
G1 X148.23 Y122.964 E.53465
G1 X148.23 Y123.25 E.01358
G1 X148.23 Y123.536 E.01358
G1 X136.979 Y123.536 E.53465
G1 X136.734 Y123.556 E.01167
;WIDTH:0.573286
G1 X136.489 Y123.577 E.01083
;WIDTH:0.53219
G1 X136.245 Y123.597 E.00999
;WIDTH:0.491095
G1 X136 Y123.618 E.00915
;WIDTH:0.449999
G1 X114 Y123.618 E.74467
;WIDTH:0.491095
G1 X113.755 Y123.597 E.00915
;WIDTH:0.53219
G1 X113.511 Y123.577 E.00999
;WIDTH:0.573286
G1 X113.266 Y123.556 E.01083
;WIDTH:0.614381
G1 X113.021 Y123.536 E.01167
G1 X101.77 Y123.536 E.53465
G1 X101.77 Y122.964 E.02715
G1 X113.021 Y122.964 E.53465
;WIDTH:0.621795
G1 X113.142 Y122.958 E.0058
G1 X113.234 Y122.878 E.00587
;WIDTH:0.578846
G1 X113.326 Y122.798 E.00543
;WIDTH:0.535897
G1 X113.418 Y122.718 E.005
;WIDTH:0.492948
G1 X113.51 Y122.638 E.00456
;WIDTH:0.449999
G1 X113.632 Y122.271 E.01307
G1 X113.632 Y117.682 E.15534
G1 X136.368 Y117.682 E.76958
G1 X136.368 Y122.271 E.15534
G1 X136.489 Y122.636 E.013
M204 P1000
G1 X136.816 Y122.394 F12000
M204 P700
;TYPE:External perimeter
